X:1
T:Super Smash Bros. Brawl Main Theme Vocal Melody
L:1/8
M:4/4
K:E
V:1 treble-8 nm="Voice" snm="Vo."
V:1
 z4 c2 BA | G8- | G2 z2 (FG)(AB) | G8- | G2 z G FGAB | G8 | z2 DE F2 ED | C2 G6- | G2 z2 c2 BA | %9
w: Au- di fa-|mam|_ il- * li- *|us.|\- So- lus- in hos- tes|rui|et pa- tri- am ser-|va- vi|_ Au- di- fa-|
 G8- | G2 z2 (FG)(AB) | G8- | G2 z G FG(AB) | G8 | z2 de f2 (ed) | e2 c6- | c2 z6 | d4 e2 f2 | %18
w: mam-|_ il- * li- *|us.|_ Cu- cur- rit quae- *|que|te- ti- git de- *|stru- ens-|_|Au- * di|
 f2 e2 d4 | d2 c2 c4- | c6 z2 | D4 E2 F2 | F2 E2 D4 | E2 F2 G4- | G6 z2 | F4 G2 A2 | A2 G2 F3 z | %27
w: fa- * mam|il- li- us|_|Au- * di|fa- * mam|il- li- us.|_|Spes _ om-|ni- * bus...|
 G4 (A2 B2) | (B2 A2) G3 z | ^A4 B2 c2 | c2 B2 B2 ^A2 | d4 d4- | d2 z2 G4 | c8- | c8 | g4 g2 (f2 | %36
w: Mi- hi _|quo- * que...|Ter- ror om-|ni- bus, mi- hi|quo- que.|_ Il-|le...|_|I- * ux-|
 g2) f2 e2- e2 | c8- | c8 | c4 (d2 e2) | (d2 c2) (B2 A2) | G4 G2 A2 | G2 F2 E2 z2 | B4 B2 c2 | %44
w: * ta me. *|le|_|i- ux- *|ta _ me. _|So- ci- i|sunt mi- hi|qui o- lim|
 B4 A2 G2 | A4 F2 G2 | A4 G2 F2 | (F2 E2 G4- | G4) z4 | G4 G2 A2 | (G2 F2) E2 z2 | B4 (B2 c2) | %52
w: vi- ri for-|tes ri- va-|les- que e-|rant. _ _|_|Sae- ve cer-|tan- * do|pu- gnan- *|
 B4 A2 G2 | (A4 F2) G2 | (A4 B4) | e8- | e8 |] %57
w: * do- que|splen- * dor|cre- *|scit.|_|

